images/four.svg

<svg height="250" viewBox="0 0 250 250" width="250" xmlns="http://www.w3.org/2000/svg"><path d="m.113281 0h249.773438v250h-249.773438zm0 0" fill="#22373d"/><path d="m45.539062 81.679688-18.433593-10.644532v107.933594l18.433593-10.644531zm0 0" fill="#ccc"/><path d="m222.894531 71.035156v107.933594l-18.441406-10.644531v-86.644531zm0 0" fill="#76bedd"/><path d="m47.476562 173.292969-18.433593 10.640625 93.46875 53.96875v-21.289063zm0 0" fill="#e6e6e6"/><path d="m202.523438 173.292969 18.433593 10.640625-93.472656 53.96875v-21.289063zm0 0" fill="#fff"/><path d="m127.484375 12.097656 93.472656 53.96875-18.433593 10.644532-75.039063-43.324219zm0 0" fill="#fff"/><path d="m122.515625 12.097656-93.472656 53.96875 18.433593 10.644532 75.039063-43.324219zm0 0" fill="#e6e6e6"/><g fill="#76bedd"><path d="m143.613281 149.339844v-48.675782l12.398438 7.117188v34.351562zm0 0"/><path d="m126.9375 137.175781v-24.347656l7.585938 4.347656v15.59375zm0 0"/><path d="m169.78125 164.097656v-78.195312l18.4375 10.582031v56.90625zm0 0"/></g></svg>

<svg xmlns="http://www.w3.org/2000/svg" xmlns:xlink="http://www.w3.org/1999/xlink" width="250px" height="250px" viewBox="0 0 250 250" version="1.1">
<g id="surface1">
<path style=" stroke:none;fill-rule:nonzero;fill:rgb(13.333334%,21.568628%,23.921569%);fill-opacity:1;" d="M 0.113281 0 L 249.886719 0 L 249.886719 250 L 0.113281 250 Z M 0.113281 0 "/>
<path style=" stroke:none;fill-rule:nonzero;fill:rgb(80.000001%,80.000001%,80.000001%);fill-opacity:1;" d="M 45.539062 81.679688 L 27.105469 71.035156 L 27.105469 178.96875 L 45.539062 168.324219 Z M 45.539062 81.679688 "/>
<path style=" stroke:none;fill-rule:nonzero;fill:rgb(46.27451%,74.509805%,86.666667%);fill-opacity:1;" d="M 222.894531 71.035156 L 222.894531 178.96875 L 204.453125 168.324219 L 204.453125 81.679688 Z M 222.894531 71.035156 "/>
<path style=" stroke:none;fill-rule:nonzero;fill:rgb(90.196079%,90.196079%,90.196079%);fill-opacity:1;" d="M 47.476562 173.292969 L 29.042969 183.933594 L 122.511719 237.902344 L 122.511719 216.613281 Z M 47.476562 173.292969 "/>
<path style=" stroke:none;fill-rule:nonzero;fill:rgb(100%,100%,100%);fill-opacity:1;" d="M 202.523438 173.292969 L 220.957031 183.933594 L 127.484375 237.902344 L 127.484375 216.613281 Z M 202.523438 173.292969 "/>
<path style=" stroke:none;fill-rule:nonzero;fill:rgb(100%,100%,100%);fill-opacity:1;" d="M 127.484375 12.097656 L 220.957031 66.066406 L 202.523438 76.710938 L 127.484375 33.386719 Z M 127.484375 12.097656 "/>
<path style=" stroke:none;fill-rule:nonzero;fill:rgb(90.196079%,90.196079%,90.196079%);fill-opacity:1;" d="M 122.515625 12.097656 L 29.042969 66.066406 L 47.476562 76.710938 L 122.515625 33.386719 Z M 122.515625 12.097656 "/>
<path style=" stroke:none;fill-rule:nonzero;fill:rgb(46.27451%,74.509805%,86.666667%);fill-opacity:1;" d="M 143.613281 149.339844 L 143.613281 100.664062 L 156.011719 107.78125 L 156.011719 142.132812 Z M 143.613281 149.339844 "/>
<path style=" stroke:none;fill-rule:nonzero;fill:rgb(46.27451%,74.509805%,86.666667%);fill-opacity:1;" d="M 126.9375 137.175781 L 126.9375 112.828125 L 134.523438 117.175781 L 134.523438 132.769531 Z M 126.9375 137.175781 "/>
<path style=" stroke:none;fill-rule:nonzero;fill:rgb(46.27451%,74.509805%,86.666667%);fill-opacity:1;" d="M 169.78125 164.097656 L 169.78125 85.902344 L 188.21875 96.484375 L 188.21875 153.390625 Z M 169.78125 164.097656 "/>
</g>
</svg>
